X:163
T:John of Paris. JGi.163
M:6/8
L:1/8
Q:3/8=100
S:Joshua Gibbons MS,1823,Tealby,Lincs.
R:jig
O:Tealby,Lincolnshire
Z:VMP/R.Greig, 2009
K:G
d/c/|B2B BAB|d2B BAB|c2eg2e|d2B BAB|
c2A AGA|B2G GFG|E2e edc|B2GG2:|
|:B/c/|d2c Bcd|e2fg2a|b2a gfe|d2cB2c|
d2c Bcd|e2fg2a|b2a gfe|d2c Bcd|
e2e ecA|d2d dBG|c2AB2G|FAd”D Cap”d2:|

